polaris-icons/icons/new-icons/AnalyticsTableMinor.svg

<svg width="20" height="20" viewBox="0 0 20 20" fill="none" xmlns="http://www.w3.org/2000/svg">
<path fill-rule="evenodd" clip-rule="evenodd" d="M5.5 16.5C4.39543 16.5 3.5 15.6046 3.5 14.5V5.5C3.5 4.39543 4.39543 3.5 5.5 3.5H14.5C15.6046 3.5 16.5 4.39543 16.5 5.5V14.5C16.5 15.6046 15.6046 16.5 14.5 16.5H5.5ZM8.75 5H11.25V7H8.75V5ZM7.25 5H5.5C5.22386 5 5 5.22386 5 5.5V7H7.25V5ZM7.25 8.5H5V14.5C5 14.7761 5.22386 15 5.5 15H7.25V8.5ZM8.75 15V8.5H11.25V15H8.75ZM12.75 7V5H14.5C14.7761 5 15 5.22386 15 5.5V7H12.75ZM12.75 8.5V15H14.5C14.7761 15 15 14.7761 15 14.5V8.5H12.75Z" fill="#4A4A4A"/>
</svg>

<svg viewBox="0 0 20 20" xmlns="http://www.w3.org/2000/svg"><path fill-rule="evenodd" d="M5.5 16.5a2 2 0 0 1-2-2v-9a2 2 0 0 1 2-2h9a2 2 0 0 1 2 2v9a2 2 0 0 1-2 2h-9Zm3.25-11.5h2.5v2h-2.5v-2Zm-1.5 0h-1.75a.5.5 0 0 0-.5.5v1.5h2.25v-2Zm0 3.5h-2.25v6a.5.5 0 0 0 .5.5h1.75v-6.5Zm1.5 6.5v-6.5h2.5v6.5h-2.5Zm4-8v-2h1.75a.5.5 0 0 1 .5.5v1.5h-2.25Zm0 1.5v6.5h1.75a.5.5 0 0 0 .5-.5v-6h-2.25Z" fill="#5C5F62"/></svg>
